X:1
T:Ghostly Tune from the Living Library
M:4/4
L:1/8
R:Waltz
K:Cmin
|: (3def g2 a | b2 g2 :| |: c2 d2 | e2 f2 | g2 a2 | b2 g2 :| |: c2 d2 | e2 f2 | g2 a2 | b2 g2 :| |: c2 d2 | e2 f2 | g2 a2 | b2 g2 :|